src/components/Icon/svg-icon/social/reddit.svg

<svg xmlns="http://www.w3.org/2000/svg" width="24" height="24" viewBox="0 0 24 24">
  <g fill="none" fill-rule="evenodd">
    <path fill="#FF4500" d="M24,12 C24,18.627375 18.627375,24 12,24 C5.372625,24 0,18.627375 0,12 C0,5.372625 5.372625,0 12,0 C18.627375,0 24,5.372625 24,12"/>
    <path fill="#FFFFFE" d="M14.7500625,14.5003125 C14.0608125,14.5003125 13.5,13.9395 13.5,13.25025 C13.5,12.561 14.0608125,12 14.7500625,12 C15.4393125,12 15.9999375,12.561 15.9999375,13.25025 C15.9999375,13.9395 15.4393125,14.5003125 14.7500625,14.5003125 Z M14.97,16.5530625 C14.116875,17.4050625 12.4820625,17.47125 12.0015,17.47125 C11.5205625,17.47125 9.88575,17.4050625 9.0335625,16.552875 C8.9071875,16.4265 8.9071875,16.221375 9.03375,16.0948125 C9.160125,15.9684375 9.36525,15.96825 9.4918125,16.0948125 C10.0295625,16.6325625 11.179875,16.8234375 12.0015,16.8234375 C12.823125,16.8234375 13.973625,16.6325625 14.5123125,16.094625 C14.6390625,15.96825 14.844,15.9684375 14.970375,16.095 C15.09675,16.2215625 15.09675,16.4266875 14.97,16.5530625 Z M8.0000625,13.2500625 C8.0000625,12.5608125 8.5610625,12 9.2505,12 C9.939375,12 10.5,12.5608125 10.5,13.2500625 C10.5,13.939125 9.939375,14.4999375 9.2505,14.4999375 C8.5610625,14.4999375 8.0000625,13.939125 8.0000625,13.2500625 Z M19.998,12 C19.998,11.0334375 19.214625,10.2500625 18.2480625,10.2500625 C17.7763125,10.2500625 17.349,10.4375625 17.034375,10.741125 C15.838125,9.877875 14.19,9.3204375 12.354375,9.2563125 L13.1514375,5.50575 L15.756,6.0594375 C15.7876875,6.7215 16.3299375,7.2500625 17.0000625,7.2500625 C17.6904375,7.2500625 18.2499375,6.690375 18.2499375,6 C18.2499375,5.309625 17.6904375,4.7499375 17.0000625,4.7499375 C16.509,4.7499375 16.0884375,5.0356875 15.883875,5.447625 L12.97575,4.8294375 C12.89475,4.8118125 12.81,4.82775 12.740625,4.873125 C12.6710625,4.918125 12.6223125,4.9891875 12.6050625,5.0701875 L11.7148125,9.2551875 C9.8521875,9.30675 8.177625,9.865125 6.9661875,10.7379375 C6.65175,10.43625 6.2259375,10.2500625 5.755875,10.2500625 C4.7893125,10.2500625 4.0059375,11.0334375 4.0059375,12 C4.0059375,12.7111875 4.4308125,13.321875 5.0398125,13.595625 C5.0128125,13.769625 4.998,13.9460625 4.998,14.1249375 C4.998,16.8174375 8.1320625,18.9999375 11.998125,18.9999375 C15.864,18.9999375 18.9980625,16.8174375 18.9980625,14.1249375 C18.9980625,13.9471875 18.983625,13.771875 18.957,13.5991875 C19.5699375,13.3269375 19.998,12.714 19.998,12 L19.998,12 Z"/>
  </g>
</svg>

<svg xmlns="http://www.w3.org/2000/svg" width="24" height="24"><g fill="none" fill-rule="evenodd"><path fill="#FF4500" d="M24 12c0 6.627-5.373 12-12 12S0 18.627 0 12 5.373 0 12 0s12 5.373 12 12"/><path fill="#FFFFFE" d="M14.75 14.5a1.25 1.25 0 110-2.5 1.25 1.25 0 010 2.5zm.22 2.053c-.853.852-2.488.918-2.969.918-.48 0-2.115-.066-2.967-.918a.324.324 0 01.458-.458c.538.538 1.688.728 2.51.728.821 0 1.972-.19 2.51-.728a.324.324 0 01.458.458zM8 13.25a1.251 1.251 0 012.5 0 1.25 1.25 0 01-2.5 0zM19.998 12a1.75 1.75 0 00-2.964-1.259c-1.196-.863-2.844-1.42-4.68-1.485l.797-3.75 2.605.553A1.247 1.247 0 0018.25 6a1.246 1.246 0 00-2.366-.552l-2.908-.619a.312.312 0 00-.37.24l-.891 4.186c-1.863.052-3.537.61-4.749 1.483a1.75 1.75 0 10-1.926 2.858c-.027.174-.042.35-.042.529 0 2.692 3.134 4.875 7 4.875s7-2.183 7-4.875c0-.178-.014-.353-.041-.526A1.75 1.75 0 0019.998 12z"/></g></svg>
